!!!COM: Palestrina, Giovanni Perluigi da
!!!OPR: Missa De Beata Marie Virginis (III)
!!!OMD: Credo
!!!OTL: Et vitam
**kern	**kern	**kern	**kern	**kern
*Ibass	*Itenor	*Itenor	*Icalto	*Icant
!Bassus	!Tenor 2	!Tenor 1	!Altus	!Cantus
*clefF4	*clefGv2	*clefGv2	*clefG2	*clefG2
*k[]	*k[]	*k[]	*k[]	*k[]
*G:mix	*G:mix	*G:mix	*G:mix	*G:mix
*M4/2	*M4/2	*M4/2	*M4/2	*M4/2
=171	=171	=171	=171	=171
0r	1G	0r	2r	1r
.	.	.	1d	.
.	2B	.	.	1g
.	2c	.	2e	.
=172	=172	=172	=172	=172
0r	2d	0r	2f#	2b
.	2e	.	2g	2cc
.	2d	.	2a	2dd
.	[2c	.	2a	[2ee
=173	=173	=173	=173	=173
0r	2c]	0r	2.g	2ee]
.	2B	.	.	2dd
.	.	.	4d	.
.	2A	.	4e	2cc
.	.	.	4f#	.
.	2G	.	[2g	2b
=174	=174	=174	=174	=174
1D	1d	1r	2g]	1a
.	.	.	2f#	.
2.E	4B	1G	1g	1g
.	4G	.	.	.
.	[2g	.	.	.
4F	.	.	.	.
=175	=175	=175	=175	=175
2G	4g]	2B	1r	1r
.	4f	.	.	.
2A	2e	2c	.	.
4B	2d	2d	2r	1g
8A	.	.	.	.
8B	.	.	.	.
2c	2c	2e	[2g	.
=176	=176	=176	=176	=176
2G	2B	2d	4g]	2b
.	.	.	4f	.
2C	2G	1c	2e	2cc
2.G	2r	.	2d	1dd
.	2G	2B	[2g	.
4F	.	.	.	.
=177	=177	=177	=177	=177
2E	2B	2.G	2g]	1ee
2C	2c	.	2g	.
.	.	4A	.	.
[1G	2d	[1B	[1g	4dd
.	.	.	.	4cc
.	2e	.	.	4b
.	.	.	.	4a
=178	=178	=178	=178	=178
2G]	2d	2B]	2g]	2b
2A	1c	2c	2e	1a
2F	.	[1d	4f	.
.	.	.	4e	.
2G	2B	.	4d	[2g
.	.	.	4c	.
=179	=179	=179	=179	=179
1.D	0A	2d]	1.d	2g]
.	.	4c	.	4f#
.	.	4B	.	4e
.	.	2A	.	2f#
2D	.	2d	2d	2f#
=180	=180	=180	=180	=180
[0G	[0G	[0B	[0d	[0g
=181	=181	=181	=181	=181
0G]	0G]	0B]	0d]	0g]
=182	=182	=182	=182	=182
0r	0r	0r	1r	1g
.	.	.	1d	[1dd
=183	=183	=183	=183	=183
0r	0r	0r	1.g	2dd]
.	.	.	.	2b
.	.	.	.	2dd
.	.	.	2e	[2ee
=184	=184	=184	=184	=184
0r	0r	0r	2g	4ee]
.	.	.	.	4dd
.	.	.	2.a	4cc
.	.	.	.	4b
.	.	.	.	2cc
.	.	.	4g	.
.	.	.	4f	2a
.	.	.	4e	.
=185	=185	=185	=185	=185
1r	1G	0r	2d	1b
.	.	.	1g	.
1D	[1d	.	.	1a
.	.	.	2f#	.
=186	=186	=186	=186	=186
1.G	2d]	0r	1g	2g
.	2B	.	.	4dd
.	.	.	.	4cc
.	2d	.	2.G	4b
.	.	.	.	4a
2E	[2e	.	.	[2g
.	.	.	4A	.
=187	=187	=187	=187	=187
2G	4e]	0r	2B	4g]
.	4d	.	.	4f
2.A	4c	.	2c	2e
.	4B	.	.	.
.	2c	.	4A	1a
4G	.	.	4B	.
2F	2A	.	4c	.
.	.	.	4d	.
=188	=188	=188	=188	=188
4E	1B	1G	2e	1r
4F#	.	.	.	.
1G	.	.	2d	.
.	1A	[1d	1r	1a
2F#	.	.	.	.
=189	=189	=189	=189	=189
0G	2G	2d]	1d	1.dd
.	4d	2B	.	.
.	4c	.	.	.
.	4B	2d	[1g	.
.	4A	.	.	.
.	2B	[2e	.	2b
=190	=190	=190	=190	=190
2.C	2c	4e]	2g]	1.ee
.	.	4d	.	.
.	1g	4c	2e	.
4D	.	4B	.	.
2E	.	2c	2g	.
2F	4f	2A	[2a	4dd
.	4e	.	.	4cc
=191	=191	=191	=191	=191
1G	0d	1B	4a]	2b
.	.	.	4g	.
.	.	.	1g	2g
1D	.	1A	.	1a
.	.	.	2f#	.
=192	=192	=192	=192	=192
[0G	[0d	[0G	[0g	[0b
=193	=193	=193	=193	=193
0G]	0d]	0G]	0g]	0b]
==	==	==	==	==
*-	*-	*-	*-	*-
!!!CDT: 1525/^1526/-1594/2/2
!!!OCY: Italia
!!!AGN: Mass (Paraphrase)
!!!AST: renaissance, vocal
!!!ASW: Gregorian Mass
!!!PWK: Masses, Book Mantuan I
!!!RNB: Cadence finals: D
!!!YOR: Le Opere Complete, v. 18, p. 162
!!!YOO: Rome, Italy: Fratelli Scalera
!!!END: 1992//
!!!EED: John Miller
!!!YEC: Copyright 2000, John Miller
!!!YEN: United States of America
!!!YEM: Rights to all derivative electronic formats reserved.
!!!YEM: Refer to licensing agreement for further details.
!!!YEM: This file must be accompanied by the licensing agreement.
!!!YEM: A copy of the licensing agreement may be found at http://www.music-cog.ohio-state.edu/HumdrumDatabases/Palestrina/license.txt
!!!EMD: converted to Humdrum by Bret Aarden
